images/discount-tag.svg

<svg width="40" height="40" viewBox="0 0 40 40" fill="none" xmlns="http://www.w3.org/2000/svg">
<path d="M39.7635 17.0658L38.2324 6.26122C38.0646 5.13928 37.5431 4.10093 36.7444 3.2987C35.9458 2.49646 34.9121 1.97262 33.7951 1.80411L23.037 0.265148C22.7601 0.222372 22.477 0.24512 22.2104 0.331583C21.9438 0.418045 21.7009 0.565834 21.5012 0.763186L0.743976 21.6182C0.0202551 22.3395 0.0583947 23.5477 0.823976 24.3167L15.8184 39.3793C16.584 40.1474 17.7868 40.1857 18.5058 39.4644L39.2677 18.6085C39.4642 18.4079 39.6114 18.1639 39.6975 17.8961C39.7836 17.6282 39.8062 17.3439 39.7635 17.0658ZM31.4175 8.64863C31.0663 8.29576 30.8272 7.84623 30.7303 7.35685C30.6335 6.86748 30.6833 6.36026 30.8734 5.89931C31.0635 5.43836 31.3854 5.04438 31.7984 4.7672C32.2115 4.49002 32.697 4.34207 33.1937 4.34207C33.6905 4.34207 34.176 4.49002 34.5891 4.7672C35.0021 5.04438 35.324 5.43836 35.5141 5.89931C35.7042 6.36026 35.754 6.86748 35.6572 7.35685C35.5603 7.84623 35.3212 8.29576 34.97 8.64863C34.7368 8.88299 34.4599 9.0689 34.1551 9.19574C33.8503 9.32257 33.5236 9.38786 33.1937 9.38786C32.8638 9.38786 32.5372 9.32257 32.2324 9.19574C31.9276 9.0689 31.6507 8.88299 31.4175 8.64863Z" fill="#EA8571"/>
<path d="M39.7637 17.0657L38.2325 6.26122C38.0648 5.13928 37.5432 4.10093 36.7446 3.2987C35.9459 2.49646 34.9122 1.97262 33.7953 1.80411L23.0372 0.265148C22.7602 0.222372 22.4772 0.24512 22.2106 0.331583C21.9439 0.418045 21.7011 0.565834 21.5013 0.763186L1.52367 20.9183C0.804601 21.6397 0.842741 22.8478 1.60832 23.6169L16.6027 38.6785C17.3683 39.4475 18.5711 39.4859 19.2893 38.7636L39.2679 18.6084C39.4644 18.4078 39.6116 18.1639 39.6976 17.8961C39.7837 17.6282 39.8063 17.3439 39.7637 17.0657ZM31.4176 8.64863C31.0664 8.29576 30.8273 7.84622 30.7305 7.35685C30.6336 6.86748 30.6834 6.36025 30.8735 5.8993C31.0637 5.43835 31.3856 5.04438 31.7986 4.7672C32.2116 4.49002 32.6972 4.34207 33.1939 4.34207C33.6906 4.34207 34.1762 4.49002 34.5892 4.7672C35.0022 5.04438 35.3241 5.43835 35.5143 5.8993C35.7044 6.36025 35.7542 6.86748 35.6573 7.35685C35.5605 7.84622 35.3214 8.29576 34.9702 8.64863C34.7369 8.88299 34.46 9.0689 34.1553 9.19573C33.8505 9.32257 33.5238 9.38786 33.1939 9.38786C32.864 9.38786 32.5373 9.32257 32.2326 9.19573C31.9278 9.0689 31.6509 8.88299 31.4176 8.64863Z" fill="#F9AB98"/>
<path d="M31.6281 8.55362C30.7909 7.67341 30.6504 6.30077 31.4235 5.32525C32.2607 4.27311 33.8272 4.22639 34.7649 5.1692C35.616 6.02699 35.7239 7.43981 34.9649 8.39477C34.1118 9.46933 32.5853 9.46747 31.6235 8.55175C31.4942 8.42747 31.0709 8.60408 31.2114 8.73863C32.91 10.358 35.9946 9.22359 35.9304 6.75676C35.8653 4.23387 32.5816 3.35739 31.056 5.22247C30.6498 5.72641 30.4413 6.36233 30.4699 7.01014C30.4985 7.65795 30.7623 8.27282 31.2114 8.73863C31.3342 8.87038 31.7602 8.69752 31.6281 8.55362Z" fill="#EA8571"/>
<path d="M15.5628 21.9224C16.1116 22.4712 16.5738 22.8266 16.9494 22.9886C17.3251 23.1507 17.6344 23.1102 17.8775 22.8671C18.3636 22.381 18.0635 21.5947 16.977 20.5082C15.8906 19.4218 15.1043 19.1216 14.6182 19.6078C14.3751 19.8508 14.3346 20.1602 14.4967 20.5359C14.6587 20.9115 15.0141 21.3737 15.5628 21.9224ZM18.0377 19.4255C18.8848 20.2725 19.3691 21.0625 19.4906 21.7954C19.6121 22.5209 19.3764 23.1801 18.7835 23.7731C18.2237 24.3329 17.57 24.5483 16.8224 24.4194C16.0748 24.2832 15.2921 23.8062 14.4746 22.9886C12.7915 21.3056 12.5374 19.8766 13.7122 18.7018C14.2904 18.1236 14.9533 17.8989 15.7009 18.0278C16.4486 18.1494 17.2275 18.6152 18.0377 19.4255ZM24.0481 19.8895C24.5969 20.4383 25.0609 20.7955 25.4402 20.9612C25.8232 21.1233 26.1363 21.0828 26.3794 20.8397C26.8618 20.3572 26.5561 19.5691 25.4623 18.4753C24.3833 17.3962 23.6025 17.0979 23.12 17.5804C22.877 17.8234 22.8328 18.1328 22.9875 18.5084C23.1458 18.8804 23.4994 19.3408 24.0481 19.8895ZM26.534 17.4036C27.3811 18.2506 27.8635 19.0388 27.9814 19.768C28.0992 20.4972 27.8654 21.1546 27.2798 21.7401C26.72 22.2999 26.0682 22.5172 25.3242 22.392C24.5766 22.2631 23.7922 21.788 22.9709 20.9667C21.2878 19.2837 21.0355 17.8529 22.2141 16.6744C22.7812 16.1072 23.4386 15.8844 24.1862 16.006C24.9375 16.1238 25.7201 16.5897 26.534 17.4036ZM19.2475 13.3985L22.8438 25.9552L21.7721 27.0269L18.1758 14.4702L19.2475 13.3985Z" fill="white"/>
</svg>

<svg xmlns="http://www.w3.org/2000/svg" width="40" height="40" fill="none"><path fill="#EA8571" d="M39.764 17.066 38.232 6.26a5.312 5.312 0 0 0-1.488-2.96 5.271 5.271 0 0 0-2.949-1.495L23.037.265a1.792 1.792 0 0 0-1.536.498L.744 21.618c-.724.722-.686 1.93.08 2.699l14.994 15.062c.766.768 1.969.807 2.688.085L39.268 18.61a1.81 1.81 0 0 0 .495-1.543M31.416 8.65a2.527 2.527 0 0 1-.544-2.75c.19-.46.512-.855.925-1.132A2.504 2.504 0 0 1 35.514 5.9a2.534 2.534 0 0 1-.544 2.75 2.51 2.51 0 0 1-1.776.739 2.502 2.502 0 0 1-1.777-.74"/><path fill="#F9AB98" d="M39.764 17.066 38.232 6.26a5.312 5.312 0 0 0-1.486-2.96 5.272 5.272 0 0 0-2.95-1.495L23.037.265a1.792 1.792 0 0 0-1.536.498L1.524 20.918c-.72.722-.681 1.93.084 2.699l14.995 15.061c.765.77 1.968.808 2.686.086l19.979-20.156a1.808 1.808 0 0 0 .496-1.542m-8.346-8.417a2.526 2.526 0 0 1-.544-2.75c.19-.46.512-.855.925-1.132A2.504 2.504 0 0 1 35.514 5.9a2.533 2.533 0 0 1-.544 2.75 2.512 2.512 0 0 1-1.776.739 2.501 2.501 0 0 1-1.776-.74"/><path fill="#EA8571" d="M31.628 8.554c-.837-.88-.978-2.253-.204-3.229.837-1.052 2.403-1.099 3.34-.156.852.858.96 2.27.2 3.226-.852 1.074-2.379 1.072-3.34.157-.13-.125-.553.052-.413.187 1.699 1.619 4.784.485 4.72-1.982-.066-2.523-3.35-3.4-4.875-1.535a2.662 2.662 0 0 0 .155 3.517c.123.131.55-.041.417-.185"/><path fill="#fff" d="M15.563 21.922c.549.55 1.01.905 1.386 1.067.376.162.685.121.928-.122.487-.486.187-1.272-.9-2.359-1.086-1.086-1.873-1.386-2.359-.9-.243.243-.283.552-.121.928.162.375.517.838 1.066 1.386m2.475-2.497c.847.848 1.331 1.637 1.453 2.37.121.726-.115 1.385-.707 1.978-.56.56-1.214.775-1.962.646-.747-.136-1.53-.613-2.347-1.43-1.684-1.683-1.938-3.112-.763-4.287.578-.578 1.241-.803 1.989-.674.748.121 1.526.587 2.337 1.398m6.01.465c.549.548 1.013.906 1.392 1.071.383.162.696.122.94-.121.482-.483.176-1.27-.918-2.365-1.079-1.079-1.86-1.377-2.342-.895-.243.243-.287.553-.133.928.159.372.512.833 1.061 1.382m2.486-2.486c.847.847 1.33 1.635 1.447 2.364.118.73-.116 1.387-.701 1.972-.56.56-1.212.777-1.956.652-.747-.129-1.532-.604-2.353-1.425-1.683-1.683-1.936-3.114-.757-4.293.567-.567 1.225-.79 1.972-.668.752.118 1.534.584 2.348 1.398M19.248 13.4l3.596 12.556-1.072 1.072-3.596-12.557z"/></svg>
